svg/Outline/console.svg

<svg viewBox="0 0 24 24" xmlns="http://www.w3.org/2000/svg" width="24" height="24"><path d="M12.79 10.3a.9.9 0 0 1 0 1.8H9.66a.9.9 0 0 1 0-1.8zM4.4 4.57a.9.9 0 0 1 1.2-.2l.07.06 3.8 3.03a.9.9 0 0 1 0 1.41l-3.8 3.03a.9.9 0 0 1-1.12-1.4l2.91-2.33-2.91-2.33-.07-.06a.9.9 0 0 1-.07-1.2"/><path fill-rule="evenodd" d="M18.1 1c1.3.03 2.08.1 2.73.44a4 4 0 0 1 1.74 1.74c.44.86.44 1.98.44 4.22v10.68c-.03 1.3-.11 2.1-.44 2.74l-.15.27a4 4 0 0 1-1.6 1.47l-.16.08c-.61.26-1.38.33-2.57.35l-1.48.01H5.92a7 7 0 0 1-2.56-.36l-.17-.08a4 4 0 0 1-1.6-1.47l-.15-.27c-.32-.65-.4-1.44-.42-2.74L1 16.6V7.4c0-2.1 0-3.22.36-4.05l.07-.17A4 4 0 0 1 2.92 1.6l.27-.15c.64-.33 1.44-.41 2.73-.43L7.41 1h10.68M7.4 2.8c-1.14 0-1.9 0-2.47.05-.56.04-.79.12-.92.19a2.2 2.2 0 0 0-.96.96 2 2 0 0 0-.2.92c-.04.58-.04 1.33-.04 2.48v9.2c0 1.15 0 1.9.05 2.48.04.56.12.79.19.92q.33.63.96.96l.12.05c.15.05.38.1.8.14.57.05 1.33.05 2.48.05h9.2c1.15 0 1.9 0 2.48-.05.55-.04.79-.12.92-.19l.15-.09q.52-.3.8-.87l.06-.12c.05-.15.1-.38.14-.8.05-.58.05-1.33.05-2.48V7.4c0-1.15 0-1.9-.05-2.48a3 3 0 0 0-.14-.8L20.97 4a2 2 0 0 0-.81-.87L20 3.04a3 3 0 0 0-.92-.2c-.58-.04-1.33-.04-2.48-.04z" clip-rule="evenodd"/></svg>

<svg viewBox="0 0 24 24" xmlns="http://www.w3.org/2000/svg" width="24" height="24"><path d="M12.79 10.3a.9.9 0 0 1 0 1.8H9.66a.9.9 0 0 1 0-1.8zM4.4 4.57A.9 .9 0 0 1 5.6 4.37L9.47 7.46A.9 .9 0 0 1 9.47 8.87L5.67 11.9A.9 .9 0 0 1 4.55 10.5L7.46 8.17L4.48 5.78A.9 .9 0 0 1 4.41 4.58"/><path fill-rule="evenodd" d="M18.1 1C19.4 1.03 20.18 1.1 20.83 1.44A4 4 0 0 1 22.57 3.18C23.01 4.04 23.01 5.16 23.01 7.4L23.01 18.08C22.98 19.38 22.9 20.18 22.57 20.82L22.42 21.09A4 4 0 0 1 20.82 22.56L20.66 22.64C20.05 22.9 19.28 22.97 18.09 22.99L5.92 23A7 7 0 0 1 3.36 22.64L3.19 22.56A4 4 0 0 1 1.59 21.09L1.44 20.82C1.12 20.17 1.04 19.38 1.02 18.08L1 7.4C1 5.3 1 4.18 1.36 3.35L1.43 3.18A4 4 0 0 1 2.92 1.6L3.19 1.45C3.83 1.12 4.63 1.04 5.92 1.02L18.09 1M7.4 2.8c-1.14 0-1.9 0-2.47.05-.56.04-.79.12-.92.19a2.2 2.2 0 0 0-.96.96 2 2 0 0 0-.2.92c-.04.58-.04 1.33-.04 2.48v9.2c0 1.15 0 1.9.05 2.48.04.56.12.79.19.92q.33.63.96.96l.12.05c.15.05.38.1.8.14.57.05 1.33.05 2.48.05h9.2c1.15 0 1.9 0 2.48-.05.55-.04.79-.12.92-.19l.15-.09q.52-.3.8-.87l.06-.12c.05-.15.1-.38.14-.8.05-.58.05-1.33.05-2.48V7.4c0-1.15 0-1.9-.05-2.48a3 3 0 0 0-.14-.8L20.97 4a2 2 0 0 0-.81-.87L20 3.04a3 3 0 0 0-.92-.2c-.58-.04-1.33-.04-2.48-.04z" clip-rule="evenodd"/></svg>
